X:1
T:Title
%%score ( 1 2 3 ) { ( 4 6 ) | 5 }
L:1/8
Q:1/4=117
M:4/4
K:G
V:1 treble nm="Grand Piano, Staff 1"
V:2 treble 
V:3 treble 
V:4 bass nm="Choir Pad, Angel's Story"
V:6 bass 
V:5 bass 
V:1
 [DB]2 [DB]2- [DB][DB] [CA]2 | G-[DG] [DG]4 [DF]2 | D2 c2- c/ z/ c [GB]2 | [DA]2 [DB]6 | %4
w: By~Arthur~Henry~Mann,~1881 * * * *||||
 [GB]2 [^Gd]2- [Gd][Gd] [Ac]2 | [EB]2 [EB]4 [Ec]2 | [EB]2 [EA]2- [EA][^CG] [CF]2 | [^CG]2 [DA]6 | %8
w: ||||
 z2 .=B4 z2 | G2 z2 z4 | z2 .c4 z2 | [DA]2 [DB]6 | [GB]2 [^Ge]2- [Ge][Gd] [Ac]2 | %13
w: |||||
 [EB]2 [Ed]4 [Ec]2 | [CE]2 [DG]2- [DG][CF] [CE]2 | [CF]2 [B,G]6- | [B,G]2 z2 z4 |] %17
w: ||||
V:2
 x8 | .B,2 z2 z4 | z2 D2 F2 z2 | x8 | x8 | x8 | x8 | x8 | [C_B]2 B,2 z =B [CA]2 | B,D [DG]4 [DF]2 | %10
 D2 D2 z c [GB]2 | x8 | x8 | x8 | x8 | x8 | x8 |] %17
V:3
 x8 | x8 | x8 | x8 | x8 | x8 | x8 | x8 | z4 D2 z2 | x8 | z4 F2 z2 | x8 | x8 | x8 | x8 | x8 | x8 |] %17
V:4
 G,2 D,2 E,2 F,2 | G,2 B,4 A,2 | z4 A,2 z2 | C2 B,6 | B,2 B,2- B,B,[K:treble] E2 | D2 D4 C2 | %6
 D2 ^C2- C[K:bass]B, A,2 | G,2 G,4 F,2 | F,2 G,2 D,E, F,2 | F,2 B,4 A,2 | F,2 F,2 A,A, G,2 | %11
 C2 B,6 | B,2 B,2- B,B,[K:treble] E2 | D2 B,4 C2 | A,2[K:bass] B,2- B,A, G,2 | A,2 G,6- | %16
 G,2 z2 z4 |] %17
V:5
 G,,2 G,,2 G,,2 G,,2 | G,,B,, D,4 D,2 | D,2 .D,4 E,2 | F,2 G,6 | G,2 E,2- E,E, F,2 | ^G,2 G,4 A,2 | %6
 A,2 A,,2- A,,A,, A,,2 | A,,2 D,6 | D,2 G,,2 G,,2 G,,2 | G,,B,, D,4 D,2 | D,2 D,2- D,/ z/ D, E,2 | %11
 F,2 G,6 | G,2 E,2- E,E, F,2 | ^G,2 G,4 A,2 | A,,2 D,2- D,D, D,2 | D,2 G,,6- | G,,2 z2 z4 |] %17
V:6
 x8 | x8 | F,2 F,2 z D, G,2 | x8 | x6[K:treble] x2 | x8 | x5[K:bass] x3 | x8 | x8 | x8 | x8 | x8 | %12
 x6[K:treble] x2 | x8 | x2[K:bass] x6 | x8 | x8 |] %17

